dist/svg/u1F4C0.svg

<?xml version="1.0" encoding="UTF-8"?><svg id="a" xmlns="http://www.w3.org/2000/svg" viewBox="0 0 40 40"><rect width="40" height="40" fill="none"/><g><g><path d="M21.85,17.36L30.042,5.666C22.121,.123,11.204,2.047,5.659,9.963l11.699,8.188c1.022-1.458,3.032-1.813,4.491-.792Z" fill="#ffc450"/><path d="M18.15,22.64l-8.192,11.694c7.921,5.543,18.837,3.619,24.383-4.297l-11.699-8.188c-1.022,1.458-3.032,1.813-4.491,.792Z" fill="#ffc450"/></g><g><path d="M17.358,18.151L5.659,9.963c-3.729,5.323-4.066,11.994-1.489,17.483l12.924-6.079c-.475-1.011-.423-2.235,.264-3.215Z" fill="#ffc450"/><path d="M9.958,34.334l8.192-11.694c-.478-.335-.825-.781-1.056-1.274l-12.924,6.079c1.256,2.674,3.193,5.072,5.788,6.888Z" fill="#ffe3a0"/><path d="M35.83,12.554l-12.924,6.079c.475,1.011,.423,2.235-.264,3.215l11.699,8.188c3.729-5.323,4.066-11.994,1.489-17.483Z" fill="#ffc450"/><path d="M30.042,5.666l-8.192,11.694c.478,.335,.825,.781,1.056,1.274l12.924-6.079c-1.256-2.674-3.193-5.072-5.788-6.888Z" fill="#ffe3a0"/></g><path d="M23.068,15.739c-2.376-1.663-5.652-1.085-7.315,1.289-1.663,2.374-1.086,5.648,1.29,7.311s5.652,1.084,7.315-1.289,1.086-5.649-1.29-7.311Zm-4.217,6.02c-.95-.665-1.182-1.974-.516-2.924s1.976-1.18,2.926-.516,1.182,1.974,.516,2.924-1.976,1.18-2.926,.516Z" fill="#495b73"/></g></svg>

<svg id="Layer_1" data-name="Layer 1" xmlns="http://www.w3.org/2000/svg" viewBox="0 0 40 40"><defs><style>.cls-1{fill:none;}.cls-2{fill:#ffc450;}.cls-3{fill:#ffe3a0;}.cls-4{fill:#495b73;}</style></defs><rect class="cls-1" width="40" height="40"/><path class="cls-2" d="M21.85,17.36,30.042,5.666a17.513,17.513,0,0,0-24.383,4.3l11.7,8.188A3.226,3.226,0,0,1,21.85,17.36Z"/><path class="cls-2" d="M18.15,22.64,9.958,34.334a17.513,17.513,0,0,0,24.383-4.3l-11.7-8.188A3.226,3.226,0,0,1,18.15,22.64Z"/><path class="cls-2" d="M17.358,18.151,5.659,9.963A17.474,17.474,0,0,0,4.17,27.446l12.924-6.079A3.21,3.21,0,0,1,17.358,18.151Z"/><path class="cls-3" d="M9.958,34.334,18.15,22.64a3.2,3.2,0,0,1-1.056-1.273L4.17,27.446A17.408,17.408,0,0,0,9.958,34.334Z"/><path class="cls-2" d="M35.83,12.554,22.906,18.633a3.21,3.21,0,0,1-.264,3.216l11.7,8.188A17.474,17.474,0,0,0,35.83,12.554Z"/><path class="cls-3" d="M30.042,5.666,21.85,17.36a3.2,3.2,0,0,1,1.056,1.273L35.83,12.554A17.408,17.408,0,0,0,30.042,5.666Z"/><path class="cls-4" d="M23.068,15.739a5.25,5.25,0,1,0,1.29,7.311A5.255,5.255,0,0,0,23.068,15.739Zm-4.217,6.02a2.1,2.1,0,1,1,2.926-.516A2.1,2.1,0,0,1,18.851,21.759Z"/></svg>
